src/assets/outline/StarSlash.svg

<svg width="24" height="24" viewBox="0 0 24 24"  xmlns="http://www.w3.org/2000/svg">
<path d="M5.28012 19.4001C5.22012 19.4001 5.17012 19.3901 5.11012 19.3801C4.71012 19.2901 4.45012 18.8801 4.55012 18.4801L5.12012 16.0201C5.20012 15.7001 5.04012 15.1501 4.80012 14.9101L2.32012 12.4301C1.08012 11.1901 1.18012 10.1301 1.35012 9.61008C1.52012 9.09008 2.06012 8.17008 3.78012 7.88008L6.97012 7.35008C7.27012 7.29008 7.70012 6.97008 7.83012 6.70008L9.60012 3.17008C10.4001 1.56008 11.4501 1.33008 12.0001 1.33008C12.5501 1.33008 13.6001 1.57008 14.4001 3.17008L16.1601 6.69008C16.2201 6.81008 16.3501 6.95008 16.5001 7.07008C16.8301 7.32008 16.8901 7.80008 16.6301 8.12008C16.3801 8.45008 15.9101 8.51008 15.5801 8.25008C15.3401 8.07008 15.0201 7.76008 14.8201 7.36008L13.0601 3.84008C12.7501 3.21008 12.3501 2.83008 12.0001 2.83008C11.6501 2.83008 11.2501 3.21008 10.9401 3.85008L9.17012 7.37008C8.82012 8.07008 7.98012 8.69008 7.21012 8.82008L4.03012 9.35008C3.35012 9.46008 2.89012 9.73008 2.78012 10.0601C2.67012 10.3901 2.90012 10.8801 3.39012 11.3601L5.87012 13.8401C6.47012 14.4401 6.78012 15.5201 6.59012 16.3501L6.02012 18.8101C5.93012 19.1601 5.63012 19.4001 5.28012 19.4001Z" />
<path d="M17.6598 22.6697C17.1298 22.6697 16.4498 22.4997 15.5998 21.9997L12.6098 20.2297C12.2998 20.0497 11.6998 20.0497 11.3998 20.2297L8.39982 21.9997C8.04982 22.2097 7.57982 22.0897 7.36982 21.7397C7.15982 21.3797 7.27982 20.9197 7.62982 20.7097L10.6198 18.9397C11.3998 18.4797 12.5798 18.4797 13.3598 18.9397L16.3498 20.7097C17.2198 21.2297 17.7698 21.2297 17.9798 21.0797C18.1898 20.9297 18.3398 20.3997 18.1198 19.4197L17.4098 16.3497C17.2198 15.5197 17.5298 14.4497 18.1298 13.8397L20.6098 11.3597C21.0998 10.8697 21.3198 10.3897 21.2198 10.0597C21.1098 9.72966 20.6498 9.45966 19.9698 9.34966C19.5598 9.27966 19.2898 8.89966 19.3498 8.48966C19.4198 8.07966 19.7998 7.80966 20.2098 7.86966C21.9398 8.15966 22.4798 9.07966 22.6398 9.59966C22.7998 10.1197 22.8998 11.1797 21.6698 12.4197L19.1998 14.8997C18.9598 15.1397 18.8098 15.6797 18.8798 16.0097L19.5898 19.0797C20.0498 21.0797 19.3398 21.9497 18.8798 22.2897C18.6298 22.4697 18.2298 22.6697 17.6598 22.6697Z" />
<path d="M1.99994 22.7504C1.80994 22.7504 1.61994 22.6804 1.46994 22.5304C1.17994 22.2404 1.17994 21.7604 1.46994 21.4704L21.4699 1.47043C21.7599 1.18043 22.2399 1.18043 22.5299 1.47043C22.8199 1.76043 22.8199 2.24043 22.5299 2.53043L2.52994 22.5304C2.37994 22.6804 2.18994 22.7504 1.99994 22.7504Z" />
</svg>

<?xml version="1.0" encoding="UTF-8"?>
<svg width="24" height="24" viewBox="0 0 24 24" xmlns="http://www.w3.org/2000/svg">
 <path d="m5.2801 19.4c-0.06 0-0.11-0.01-0.17-0.02-0.4-0.09-0.66-0.5-0.56-0.9l0.57-2.46c0.08-0.32-0.08-0.87-0.32-1.11l-2.48-2.48c-1.24-1.24-1.14-2.3-0.97-2.82 0.17-0.52 0.71-1.44 2.43-1.73l3.19-0.53c0.3-0.06 0.73-0.38 0.86-0.65l1.77-3.53c0.79998-1.61 1.85-1.84 2.4-1.84s1.6 0.24 2.4 1.84l1.76 3.52c0.06 0.12 0.19 0.26 0.34 0.38 0.33 0.25 0.39 0.73 0.13 1.05-0.25 0.33-0.72 0.39-1.05 0.13-0.24-0.18-0.56-0.49-0.76-0.89l-1.76-3.52c-0.31-0.63-0.71-1.01-1.06-1.01s-0.75 0.38-1.06 1.02l-1.77 3.52c-0.35 0.7-1.19 1.32-1.96 1.45l-3.18 0.53c-0.68 0.11-1.14 0.38-1.25 0.71002-0.11 0.33 0.12 0.82 0.61 1.3l2.48 2.48c0.6 0.6 0.91 1.68 0.72 2.51l-0.57 2.46c-0.09 0.35-0.39 0.59-0.74 0.59z"/>
 <path d="m17.66 22.67c-0.53 0-1.21-0.17-2.06-0.67l-2.99-1.77c-0.31-0.18-0.91-0.18-1.21 0l-3 1.77c-0.35 0.21-0.82 0.09-1.03-0.26-0.21-0.36-0.09-0.82 0.26-1.03l2.99-1.77c0.78-0.46 1.96-0.46 2.74 0l2.99 1.77c0.87 0.52 1.42 0.52 1.63 0.37s0.36-0.68 0.14-1.66l-0.71-3.07c-0.19-0.83 0.12-1.9 0.72-2.51l2.48-2.48c0.49-0.49 0.71-0.97 0.61-1.3-0.11-0.33004-0.57-0.60004-1.25-0.71004-0.41-0.07-0.68-0.45-0.62-0.86 0.07-0.41 0.45-0.68 0.86-0.62 1.73 0.29 2.27 1.21 2.43 1.73 0.16 0.52004 0.26 1.58-0.97 2.82l-2.47 2.48c-0.24 0.24-0.39 0.78-0.32 1.11l0.71 3.07c0.46 2-0.25 2.87-0.71 3.21-0.25 0.18-0.65 0.38-1.22 0.38z"/>
 <path d="m1.9999 22.75c-0.19 0-0.38-0.07-0.53-0.22-0.29-0.29-0.29-0.77 0-1.06l20-20c0.29-0.29 0.77-0.29 1.06 0s0.29 0.77 0 1.06l-20 20c-0.15 0.15-0.34 0.22-0.53 0.22z"/>
</svg>
